X: 115
T: Ata Barı
C: Muzaffer Sarısözen
O: Turkey
F: http://compmusic.upf.edu/node/140
N: ussak--oyunhavasi--ikizaksak--ata_bari--artvin
N: makam= ussak
N: form= oyunhavasi
N: usul= ikizaksak = 12/8
M: 12/8
L: 1/16
K: C _2/4B   
Q: 1/4=174
%%MIDI tuningsystem comma53
A4 B2c2 d4 d2e2 c2d6  | d2c2 d2e2 .c4 e2d4d6  | \
w:   |   | 
A4 B2c2 d4 d2e2 c2d6  | 
w:   | 
d2c2 d2e2 .c4 e2d4d6  | d2c2 d2e2 .c4 c2B2 c2B2 A2G2  | \
w:   |   | 
c2B2 c2d2 .B4 B2.A4.A6  | 
w:   | 
d2c2 d2e2 .c4 c2B2 c2B2 A2G2  | c2B2 c2d2 .B4 B2.A4.A6  | \
w:   |   | 
A4 B2c2 d4 d2e2 c2d6  | 
w:   | 
d2c2 d2e2 .c4 e2d4d6  | A4 B2c2 d4 d2e2 c2d6  | \
w:   |   | 
d2c2 d2e2 .c4 e2d4d6  | 
w:   | 
d2c2 d2e2 .c4 c2B2 c2B2 A2G2  | c2B2 c2d2 .B4 B2.A4.A6  | \
w:   |   | 
d2c2 d2e2 .c4 c2B2 c2B2 A2G2  | 
w:   | 
c2B2 c2d2 .B4 B2.A4.A6  | |


